symbols/web/4g_mobiledata/materialsymbolssharp/4g_mobiledata_wght600gradN25_48px.svg

<svg xmlns="http://www.w3.org/2000/svg" height="48" width="48"><path d="M14 34.2v-6.15H5.55v-13.6H9.1V24.5H14V14.45h3.5V24.5h3.95v3.55H17.5v6.15Zm10.55 0V14.45H42.5v3.5H28.1V30.7H39v-4.75h-4.8v-3.2h8.3V34.2Z"/></svg>

<svg xmlns="http://www.w3.org/2000/svg" height="48" width="48"><path d="M14 34.2V28.05H5.55V14.45H9.1V24.5H14V14.45H17.5V24.5H21.45V28.05H17.5V34.2ZM24.55 34.2V14.45H42.5V17.95H28.1V30.7H39V25.95H34.2V22.75H42.5V34.2Z"/></svg>
